!!!OTL: Der Bauer ins Holz
!!!ARE: Europa, Mitteleuropa, Deutschland
!!!SCT: A0472F
!!!YEM: Copyright 1995, estate of Helmut Schaffrath.
**kern
*ICvox
*Ivox
*M4/4
*k[]
*C:
{4c
=1
4c
4c
4A
4A
=2
4G
4G
4E}
{4E
=3
4G
4G
4F
4F
=4
2E
4r}
{4G
=5
4c
4c
4d
4d
=6
2e
4d}
{4f
=7
4e
4c
4c
4B
=8
2c
4r}
==
!!!AGN: Romanze, Ballade, Lied
!! M. Franck, Fasc. quodl. 1611 No. 2.
!!!ONB: ESAC (Essen Associative Code) Database: ALTDEU
!!!AMT: simple quadruple
!!!AIN: vox
!!!EED: Helmut Schaffrath
!!!EEV: 1.0
*-
